trophy-award.svg

<svg fill="currentColor" viewBox="0 0 24 24"><path d="m15.2 10.7 1.4 5.3-4.6-3.8L7.4 16l1.4-5.2-4.2-3.5L10 7l2-5 2 5 5.4.3zM14 19h-1v-3l-1-1-1 1v3h-1c-1.1 0-2 .9-2 2v1h8v-1a2 2 0 0 0-2-2"/></svg>

<svg  viewBox="0 0 24 24" fill="currentColor"><path  d="M15.2 10.7L16.6 16L12 12.2L7.4 16L8.8 10.8L4.6 7.3L10 7L12 2L14 7L19.4 7.3L15.2 10.7M14 19H13V16L12 15L11 16V19H10C8.9 19 8 19.9 8 21V22H16V21C16 19.9 15.11 19 14 19Z"/></svg>
